X:070
T: My Lodging Is On the Cold Ground
N: O'Farrell's Pocket Companion v.1 (Sky ed. p.48)
N: Melody used by Thomas Moore for "Believe Me If All Those
N: Endearing Young Charms"
M: 6/8
L: 1/8
Q: 80 %"slow"
K: G
B/A/|G>AG GBd|ceg g2f/e/|d>cB AGA|B3 zB>A|
G>AG GBd|ceg g2f/e/|dgB A>GA|G3 z2d/>c/|B2g g>fe|
dBg Hg2 f>e|d>cB AGA|B3 zB>A|G>AG GBd|ceg g2 f/>e/|
d<gB A>GA|G3 G2 ||
